X:1
T:The Wonderful Story
T:The Wonderful Story
T:Charles Hutchinson Gabriel
T:Charles Hutchinson Gabriel, 1897
T:Public Domain Courtesy of the Cyber Hymnal™
T:Public Domain Courtesy of the Cyber Hymnal™
C:Charles Hutchinson Gabriel
Z:Public Domain
Z:Courtesy of the Cyber Hymnal™
%%score ( 1 2 ) ( 3 4 )
L:1/8
Q:1/4=108
M:9/8
K:C
V:1 treble 
V:2 treble 
V:3 bass 
V:4 bass 
V:1
 [EG]3 | [EG]4 [^D^F][EG] [=FA][EG][=DF] | [CE]3 [EG]3 [Gc]3 | [Fc]4 [FB][Fc] [Fd][Fc][FA] | %4
w: 1.~O|sweet is the sto- ry of|Je- sus, The|won- der- ful Sav- ior of|
w: 2.~He|came from the bright- est of|glo- ry; His|blood as a ran- som He|
w: 3.~His|mer- cy flows on like a|riv- er; His|love is un- mea- sured and|
 [EG]6 [CE]3 | [DF]4 [^CE][DF] [FA][EG][DF] | [CE]3 [EG]3 [Ec]3 | [DB]4 [CA][B,G] [CA][B,G][C^F] | %8
w: men, Who|suf- fered and died for the|sin- ner, I’ll|tell it a- gain and a-|
w: gave, To|pur- chase e- ter- nal re-|demp- tion; And,|O, He is might- y to|
w: free; His|grace is for- ev- er suf-|fi- cient, It|rea- ches and pur- i- fies|
 [B,G]6 ||"^Refrain" [FG]3 | c3- cBc dc[FA] | G3 E3 [EG]3 | c3- cBc AB[^Fc] | %13
w: gain!|O|won- * der- ful, won- der- ful|sto- ry The|dear- * est that ev- er was|
w: save!|||||
w: me.|||||
 d3- !fermata![Gd]!fermata!GA Bcd | e3- [Ge][Fd][Ec] [FB][Fc][FA] | G3 E3 [Ec]3 | B3- BAG BA[FG] | %17
w: told; I’ll re- peat it in glo-|* ry, The won- der- ful sto-|* ry, Where|I * shall His beau- ty be-|
w: ||||
w: ||||
 c3- [Ec]3 |] %18
w: hold. *|
w: |
w: |
V:2
 x3 | x9 | x9 | x9 | x9 | x9 | x9 | x9 | x6 || x3 | (EEE E3) F2 x | (EEE) (C2 C) x3 | %12
 (EEE E3) E2 x | GGG x6 | G2 G x6 | (EEE) (C2 C) x3 | (FFF F3) F2 x | EEF x3 |] %18
V:3
 [C,C]3 | [C,C]4 [C,C][C,C] [C,C][C,C][C,G,] | [C,G,]3 [C,C]3 [E,_B,]3 | %3
w: ~|~ ~ ~ ~ ~ ~|~ ~ ~|
 [F,A,]4 [F,^G,][F,A,] [F,A,][F,A,][F,C] | [C,C]6 [C,G,]3 | %5
w: ~ ~ ~ ~ ~ ~|~ ~|
 [G,,G,]4 [G,,G,][G,,G,] [G,,G,][G,,G,][G,,G,] | [C,G,]3 [C,C]3 [C,G,]3 | %7
w: ~ ~ ~ ~ ~ ~|~ ~ ~|
 [D,G,]4 [D,^F,][D,G,] [D,F,][D,G,][D,A,] | [G,,G,]6 || G,3 | %10
w: ~ ~ ~ ~ ~ ~|~|O|
 [C,G,][E,G,]G, [C,G,]3 [C,A,]2 [C,C] | [C,C][C,C][C,C] [C,G,]2 [C,G,] [C,C]3 | %12
w: won- der- ful sto- ry, O|won- der- ful sto- ry, The|
 [A,,C][A,,C][A,,C] [A,,A,]3 [A,,C]2 [A,,A,] | [G,,B,][B,,B,][D,B,] !fermata![G,B,] z2 z3 | %14
w: dear- rest that ev- er, that|ev- er was told,|
 [C,C]2 [C,C] [C,C][C,C][C,G,] [C,A,][C,A,][C,C] | [C,C][C,C][C,C] [C,G,]2 [C,G,] [C,G,]3 | %16
w: I’ll re- peat it in glo- ry, The|won- der- ful sto- ry, Where|
 G,G,G, [G,D]3 [G,,G,]2 G, | [C,G,][C,G,][C,A,] [C,G,]3 |] %18
w: I shall His beau- ty, His|beau- ty be- hold.|
V:4
 x3 | x9 | x9 | x9 | x9 | x9 | x9 | x9 | x6 || G,3 | x2 G, x6 | x9 | x9 | x9 | x9 | x9 | %16
 G,G,G, x4 G, x | x6 |] %18

